images/icon-how-it-work-2.svg

<svg width="41" height="41" viewBox="0 0 41 41" fill="none" xmlns="http://www.w3.org/2000/svg">
<g clip-path="url(#clip0_107_797)">
<path fill-rule="evenodd" clip-rule="evenodd" d="M24.9579 1.46338C23.2168 3.16479 20.6454 6.09283 19.1779 8.04494C17.3217 10.5142 16.2262 12.4278 15.6299 14.2425C15.0612 15.9734 15.3165 18.3785 16.2716 20.2894C17.2872 22.321 19.2513 24.1783 21.3604 25.1014C22.8724 25.7631 24.2833 26.0524 26.0011 26.0529C27.8132 26.0535 29.2571 25.7289 30.8356 24.9663C33.3017 23.7748 35.1549 21.7985 36.0583 19.3966C36.4575 18.3356 36.6045 17.4988 36.6047 16.2876C36.6048 15.2882 36.5808 15.076 36.4004 14.4853C35.411 11.2447 32.2225 6.79877 27.2296 1.69775C26.3558 0.805098 26.2728 0.740723 25.9951 0.740723C25.725 0.740723 25.6288 0.807676 24.9579 1.46338ZM24.6117 3.76807C20.8451 7.78119 18.2265 11.3613 17.1674 13.9456C16.5421 15.4713 16.5049 16.9331 17.0497 18.5706C17.5129 19.9628 18.1683 20.9933 19.259 22.0446C20.3629 23.1086 21.3905 23.7296 22.8535 24.2171C26.2171 25.3376 30.0352 24.5385 32.5816 22.1808C34.4257 20.4735 35.5003 17.8118 35.2366 15.6045C34.9708 13.3789 32.5691 9.58846 28.6248 5.16947C27.5835 4.00291 26.0356 2.38135 25.9633 2.38135C25.9357 2.38135 25.3275 3.00541 24.6117 3.76807ZM24.8807 10.1206C24.4879 10.2401 24.1015 10.6908 24.0047 11.1421C23.959 11.3553 23.9215 12.0904 23.9215 12.7758V14.022H22.6754C21.1248 14.022 20.7495 14.0951 20.3745 14.47C20.0007 14.8438 19.915 15.2046 19.9521 16.247C19.9868 17.2244 20.081 17.479 20.5362 17.8265L20.8229 18.0454L22.364 18.0694L23.9051 18.0935L23.9358 19.5928C23.9684 21.1908 24.0058 21.3624 24.4024 21.7316C24.7031 22.0116 24.976 22.0688 26.0096 22.0688C26.9169 22.0688 27.0196 22.0537 27.3251 21.8746C27.9068 21.5338 27.984 21.2606 27.984 19.5442V18.0845H29.4437C31.1601 18.0845 31.4333 18.0072 31.7742 17.4256C31.9533 17.12 31.9684 17.0174 31.9684 16.11C31.9684 15.0764 31.9111 14.8035 31.6311 14.5028C31.262 14.1063 31.0904 14.0688 29.4924 14.0362L27.993 14.0056L27.969 12.4645L27.945 10.9234L27.7261 10.6367C27.3664 10.1654 27.1324 10.0844 26.07 10.0629C25.5543 10.0525 25.0192 10.0785 24.8807 10.1206ZM25.3261 12.8696C25.3246 14.0853 25.3032 14.3415 25.1808 14.6079C24.8532 15.3214 24.537 15.4282 22.7522 15.4282H21.3434V16.0923V16.7563H22.8404C24.294 16.7563 24.3471 16.762 24.6689 16.9506C25.2505 17.2914 25.3278 17.5646 25.3278 19.281V20.7407H25.9918H26.6559V19.1898C26.6559 17.706 26.6636 17.6274 26.8336 17.3753C26.9312 17.2303 27.1298 17.0317 27.2748 16.934C27.527 16.764 27.6055 16.7563 29.0893 16.7563H30.6403V16.0923V15.4282H29.1806C27.4642 15.4282 27.191 15.351 26.8501 14.7693C26.6615 14.4475 26.6559 14.3945 26.6559 12.9409V11.4438H25.9918H25.3278L25.3261 12.8696ZM2.21715 22.7774C1.60317 22.8982 1.08137 23.3285 0.802856 23.9438C0.646372 24.2895 0.643716 24.4197 0.641997 31.6838C0.640044 40.0066 0.606294 39.5225 1.23239 40.1486C1.78622 40.7024 1.9895 40.741 4.34559 40.739C6.22676 40.7374 6.40934 40.7251 6.73403 40.5779C6.92739 40.4903 7.15708 40.3514 7.2445 40.2694C7.39856 40.1248 7.66895 40.1195 16.1898 40.0955C25.9517 40.0679 25.38 40.0988 26.4886 39.5392C26.9583 39.302 38.1546 32.5169 39.4066 31.7106C39.9735 31.3455 40.4318 30.7642 40.5407 30.272C40.574 30.1216 40.6192 32.0552 40.6412 34.5689C40.6742 38.3313 40.6814 37.8135 40.6819 31.6392C40.6823 27.5142 40.6636 25.2642 40.6403 26.6392C40.617 28.0142 40.5899 29.067 40.58 28.9787C40.5438 28.6533 40.1483 27.9992 39.8054 27.6973C39.6112 27.5264 39.2613 27.3151 39.0278 27.2277C38.1695 26.9066 38.3275 26.8661 31.2611 29.2173C26.7303 30.7248 24.7014 31.3657 24.4604 31.3657L24.1168 31.3658V30.4478C24.1168 29.5828 24.1029 29.5005 23.8749 29.022C23.4136 28.054 22.4582 27.2264 21.4385 26.9114C20.9921 26.7735 20.7095 26.7563 18.8938 26.7557C15.4055 26.7547 15.0169 26.6565 12.968 25.2574C11.7777 24.4446 10.7546 24.1361 8.96059 24.0492L7.86684 23.9963L7.63247 23.6381C7.34934 23.2056 6.72981 22.8141 6.21754 22.7439C5.69684 22.6724 2.61895 22.6982 2.21715 22.7774ZM2.21848 24.2585C2.12497 24.3456 2.02934 24.495 2.00606 24.5906C1.98278 24.686 1.97356 27.9712 1.98559 31.8909L2.00747 39.0177L2.18543 39.1956C2.36106 39.3713 2.3884 39.3735 4.31215 39.3735C6.23598 39.3735 6.26325 39.3713 6.43887 39.1956L6.61684 39.0177V31.7474V24.4772L6.39762 24.2886C6.17895 24.1006 6.17403 24.1001 4.28348 24.1001C2.48786 24.1001 2.37958 24.1084 2.21848 24.2585ZM0.677778 31.7173C0.677778 35.8423 0.687309 37.5183 0.698872 35.4418C0.710434 33.3653 0.710434 29.9903 0.698872 27.9418C0.687231 25.8933 0.677778 27.5923 0.677778 31.7173ZM7.98403 32.0594V38.7122L16.5192 38.6913L25.0543 38.6704L25.504 38.5004C25.9943 38.315 38.5904 30.6863 38.9423 30.3616C39.4099 29.9302 39.382 29.1585 38.883 28.7205C38.3566 28.2583 38.695 28.1734 31.5633 30.5567L25.0543 32.732L21.2262 32.7733L17.3981 32.8146L16.8021 33.0239C16.1788 33.2428 15.6074 33.5333 15.2106 33.8328C14.8757 34.0857 14.6054 34.1346 14.33 33.9921C14.065 33.8552 13.9997 33.7295 13.9997 33.3576C13.9997 33.0057 14.4054 32.6641 15.4357 32.1485C16.7662 31.4826 17.0737 31.4306 20.0153 31.3749L22.5543 31.3267L22.6909 31.0532C23.1332 30.1681 22.5136 28.9092 21.3559 28.3406L20.9137 28.1235L18.2575 28.0761C15.8317 28.0328 15.5508 28.0138 15.0205 27.8571C14.1566 27.6017 13.4213 27.232 12.6068 26.6436C11.3393 25.7279 10.7155 25.516 9.09731 25.4512L7.98403 25.4067V32.0594Z" fill="#0E384C"/>
<path fill-rule="evenodd" clip-rule="evenodd" d="M2.21715 22.7773C1.60317 22.8981 1.08137 23.3284 0.802856 23.9438C0.646372 24.2894 0.643716 24.4196 0.641997 31.6838C0.640044 40.0065 0.606294 39.5224 1.23239 40.1485C1.78622 40.7023 1.9895 40.7409 4.34559 40.7389C6.22676 40.7373 6.40934 40.725 6.73403 40.5778C6.92739 40.4902 7.15708 40.3513 7.2445 40.2693C7.39856 40.1247 7.66895 40.1194 16.1898 40.0954C25.9517 40.0678 25.38 40.0987 26.4886 39.5391C26.9583 39.3019 38.1546 32.5168 39.4066 31.7105C39.9735 31.3454 40.4318 30.7641 40.5407 30.2719C40.574 30.1215 40.6192 32.0551 40.6412 34.5688C40.6742 38.3312 40.6814 37.8134 40.6819 31.6391C40.6823 27.5141 40.6636 25.2641 40.6403 26.6391C40.617 28.0141 40.5899 29.0669 40.58 28.9786C40.5438 28.6532 40.1483 27.9991 39.8054 27.6972C39.6112 27.5263 39.2613 27.315 39.0278 27.2276C38.1695 26.9065 38.3275 26.866 31.2611 29.2172C26.7303 30.7247 24.7014 31.3656 24.4604 31.3656L24.1168 31.3657V30.4477C24.1168 29.5827 24.1029 29.5004 23.8749 29.0219C23.4136 28.0539 22.4582 27.2263 21.4385 26.9113C20.9921 26.7734 20.7095 26.7562 18.8938 26.7556C15.4055 26.7546 15.0169 26.6564 12.968 25.2573C11.7777 24.4445 10.7546 24.136 8.96059 24.0491L7.86684 23.9962L7.63247 23.638C7.34934 23.2055 6.72981 22.814 6.21754 22.7438C5.69684 22.6723 2.61895 22.6981 2.21715 22.7773ZM2.21848 24.2584C2.12497 24.3455 2.02934 24.4949 2.00606 24.5905C1.98278 24.6859 1.97356 27.9711 1.98559 31.8908L2.00747 39.0176L2.18543 39.1955C2.36106 39.3712 2.3884 39.3734 4.31215 39.3734C6.23598 39.3734 6.26325 39.3712 6.43887 39.1955L6.61684 39.0176V31.7473V24.4771L6.39762 24.2885C6.17895 24.1005 6.17403 24.1 4.28348 24.1C2.48786 24.1 2.37958 24.1083 2.21848 24.2584ZM0.677778 31.7172C0.677778 35.8422 0.687309 37.5182 0.698872 35.4417C0.710434 33.3652 0.710434 29.9902 0.698872 27.9417C0.687231 25.8932 0.677778 27.5922 0.677778 31.7172ZM7.98403 32.0593V38.7121L16.5192 38.6912L25.0543 38.6703L25.504 38.5003C25.9943 38.3149 38.5904 30.6862 38.9423 30.3615C39.4099 29.9301 39.382 29.1584 38.883 28.7204C38.3566 28.2582 38.695 28.1733 31.5633 30.5566L25.0543 32.7319L21.2262 32.7732L17.3981 32.8145L16.8021 33.0238C16.1788 33.2427 15.6074 33.5332 15.2106 33.8327C14.8757 34.0856 14.6054 34.1345 14.33 33.992C14.065 33.8551 13.9997 33.7294 13.9997 33.3575C13.9997 33.0056 14.4054 32.664 15.4357 32.1484C16.7662 31.4825 17.0737 31.4305 20.0153 31.3748L22.5543 31.3266L22.6909 31.0531C23.1332 30.168 22.5136 28.9091 21.3559 28.3405L20.9137 28.1234L18.2575 28.076C15.8317 28.0327 15.5508 28.0137 15.0205 27.857C14.1566 27.6016 13.4213 27.2319 12.6068 26.6435C11.3393 25.7278 10.7155 25.5159 9.09731 25.4511L7.98403 25.4066V32.0593Z" fill="#1E84B5"/>
</g>
<defs>
<clipPath id="clip0_107_797">
<rect width="40" height="40" fill="white" transform="translate(0.640137 0.740723)"/>
</clipPath>
</defs>
</svg>

<svg xmlns="http://www.w3.org/2000/svg" width="41" height="41" fill="none" viewBox="0 0 41 41"><g fill-rule="evenodd" clip-path="url(#a)" clip-rule="evenodd"><path fill="#0e384c" d="M24.958 1.463c-1.741 1.702-4.313 4.63-5.78 6.582-1.856 2.47-2.952 4.383-3.548 6.198-.569 1.73-.314 4.135.642 6.046 1.015 2.032 2.98 3.89 5.088 4.812 1.512.662 2.923.951 4.641.952 1.812 0 3.256-.324 4.835-1.087 2.466-1.191 4.319-3.168 5.222-5.57.4-1.06.547-1.897.547-3.108 0-1-.024-1.212-.205-1.803-.989-3.24-4.178-7.686-9.17-12.787-.874-.893-.957-.957-1.235-.957-.27 0-.366.067-1.037.722m-.346 2.305c-3.767 4.013-6.385 7.593-7.445 10.178-.625 1.525-.662 2.987-.117 4.625.463 1.392 1.118 2.422 2.209 3.474 1.104 1.064 2.131 1.685 3.595 2.172 3.363 1.12 7.181.322 9.728-2.036 1.844-1.707 2.918-4.37 2.655-6.577-.266-2.225-2.668-6.016-6.612-10.435-1.041-1.166-2.59-2.788-2.662-2.788-.027 0-.636.624-1.351 1.387m.269 6.353c-.393.12-.78.57-.876 1.021-.046.213-.083.948-.083 1.634v1.246h-1.247c-1.55 0-1.925.073-2.3.448-.374.374-.46.735-.423 1.777.035.977.129 1.232.584 1.58l.287.218 1.541.024 1.541.024.03 1.5c.033 1.598.07 1.77.467 2.139.301.28.574.337 1.608.337.907 0 1.01-.015 1.315-.194.582-.341.659-.614.659-2.33v-1.46h1.46c1.716 0 1.99-.078 2.33-.66.18-.305.194-.408.194-1.315 0-1.034-.057-1.306-.337-1.607-.369-.397-.54-.434-2.139-.467l-1.499-.03-.024-1.542-.024-1.54-.219-.287c-.36-.472-.594-.553-1.656-.574-.516-.01-1.05.015-1.19.058m.445 2.749c-.001 1.215-.023 1.472-.145 1.738-.328.713-.644.82-2.429.82h-1.409v1.328h1.497c1.454 0 1.507.006 1.829.195.581.34.659.614.659 2.33v1.46h1.328V19.19c0-1.484.008-1.563.178-1.815.097-.145.296-.343.44-.441.253-.17.331-.178 1.815-.178h1.551v-1.328h-1.46c-1.716 0-1.989-.077-2.33-.659-.189-.322-.194-.374-.194-1.828v-1.497h-1.328zM2.217 22.777c-.614.121-1.136.551-1.414 1.167-.157.346-.16.476-.161 7.74-.002 8.323-.036 7.839.59 8.465.554.553.758.592 3.114.59 1.88-.002 2.063-.014 2.388-.161.193-.088.423-.227.51-.309.155-.144.425-.15 8.946-.173 9.762-.028 9.19.003 10.299-.557.47-.237 11.666-7.022 12.918-7.828.567-.365 1.025-.947 1.134-1.439.033-.15.078 1.783.1 4.297.033 3.762.04 3.244.04-2.93.001-4.125-.017-6.375-.04-5-.024 1.375-.051 2.428-.061 2.34-.036-.326-.432-.98-.775-1.282a3 3 0 0 0-.777-.47c-.858-.32-.7-.36-7.767 1.99-4.53 1.508-6.56 2.149-6.8 2.149h-.344v-.918c0-.865-.014-.948-.242-1.426-.461-.968-1.417-1.796-2.436-2.11-.447-.139-.73-.156-2.545-.156-3.488-.001-3.877-.1-5.926-1.499-1.19-.812-2.213-1.12-4.007-1.208l-1.094-.053-.235-.358c-.283-.432-.902-.824-1.414-.894-.521-.072-3.599-.046-4 .033m.001 1.482a.8.8 0 0 0-.212.332c-.023.095-.032 3.38-.02 7.3l.021 7.127.178.178c.176.175.203.178 2.127.178s1.951-.003 2.127-.178l.178-.178v-14.54l-.22-.19c-.218-.187-.223-.188-2.114-.188-1.795 0-1.903.008-2.065.159m-1.54 7.458c0 4.125.01 5.801.02 3.725.012-2.077.012-5.452 0-7.5-.01-2.049-.02-.35-.02 3.775m7.306.342v6.653l8.535-.02 8.535-.022.45-.17c.49-.185 13.086-7.814 13.438-8.138.468-.432.44-1.203-.059-1.641-.526-.463-.188-.548-7.32 1.836l-6.509 2.175-3.828.041-3.828.042-.596.209c-.623.219-1.195.51-1.591.809-.335.253-.606.302-.881.16-.265-.138-.33-.264-.33-.635 0-.352.405-.694 1.436-1.21 1.33-.665 1.638-.717 4.58-.773l2.538-.048.137-.274c.442-.885-.177-2.144-1.335-2.712l-.442-.218-2.657-.047c-2.425-.043-2.706-.062-3.237-.219-.863-.255-1.599-.625-2.413-1.213-1.268-.916-1.891-1.128-3.51-1.193l-1.113-.044z"/><path fill="#1e84b5" d="M2.217 22.777c-.614.121-1.136.551-1.414 1.167-.157.345-.16.476-.161 7.74-.002 8.323-.036 7.838.59 8.464.554.554.758.593 3.114.59 1.88 0 2.063-.013 2.388-.16.193-.088.423-.227.51-.309.155-.144.425-.15 8.946-.174 9.762-.027 9.19.004 10.299-.556.47-.237 11.666-7.022 12.918-7.829.567-.365 1.025-.946 1.134-1.438.033-.15.078 1.783.1 4.297.033 3.762.04 3.244.04-2.93.001-4.125-.017-6.375-.04-5-.024 1.375-.051 2.428-.061 2.34-.036-.326-.432-.98-.775-1.282a3 3 0 0 0-.777-.47c-.858-.32-.7-.361-7.767 1.99-4.53 1.508-6.56 2.149-6.8 2.149h-.344v-.918c0-.865-.014-.948-.242-1.426-.461-.968-1.417-1.796-2.436-2.11-.447-.139-.73-.156-2.545-.156-3.488-.001-3.877-.1-5.926-1.499-1.19-.812-2.213-1.121-4.007-1.208l-1.094-.053-.235-.358c-.283-.433-.902-.824-1.414-.894-.521-.072-3.599-.046-4 .033m.001 1.481a.8.8 0 0 0-.212.332c-.023.096-.032 3.381-.02 7.3l.021 7.128.178.178c.176.175.203.177 2.127.177s1.951-.002 2.127-.177l.178-.178v-14.54l-.22-.19c-.218-.187-.223-.188-2.114-.188-1.795 0-1.903.008-2.065.158m-1.54 7.46c0 4.124.01 5.8.02 3.724.012-2.077.012-5.452 0-7.5-.01-2.049-.02-.35-.02 3.775m7.306.341v6.653l8.535-.02 8.535-.022.45-.17c.49-.185 13.086-7.814 13.438-8.139.468-.43.44-1.203-.059-1.64-.526-.463-.188-.548-7.32 1.836l-6.509 2.175-3.828.041-3.828.041-.596.21c-.623.219-1.195.51-1.591.809-.335.253-.606.302-.881.159-.265-.137-.33-.263-.33-.634 0-.352.405-.694 1.436-1.21 1.33-.666 1.638-.718 4.58-.773l2.538-.048.137-.274c.442-.885-.177-2.144-1.335-2.713l-.442-.217-2.657-.047c-2.425-.043-2.706-.062-3.237-.219-.863-.255-1.599-.625-2.413-1.213-1.268-.916-1.891-1.128-3.51-1.193l-1.113-.044z"/></g><defs><clipPath id="a"><path fill="#fff" d="M.64.74h40v40h-40z"/></clipPath></defs></svg>
